X: 163
T: A Dog Called Bran
R: reel
M: 4/4
K: Aminor
|:eedB A2 Bd|eedB egee-|eedB AABG|1 E3c BAAA:|2 EEEc BAAG||
|:EGAc E2 DB,|DEGA Bdeg|EGAc BBAG|EEEc BAAG:|

